!!!SOCIAL_FUNCTION:	bird dance songs
!!!PDT:	1956
!!!OTL: No_187_Old_Man's_Dance_SOng_(f).krn
!!!LANG: Non-Tone
!!!LING_GROUP: Muskogean
!!!REG: Florida
**kern
*staff1
=1-
*clefF4
*k[b-e-a-]
*M2/4
(16c\LK
8.B-\J)
(16c\LK
8.B-\J)
=2
2B-\
=3
4r
8c\L
8B-\J
=4!|:
(8B-\L
8G\J)
4G\
=5||
*M3/4
4.A-\
8r
8A-\L
8A-\J
=6||
*M2/4
4G\
4E-\
=7
4r
8A-\L
8A-\J
=8
4G\
4E-\
=9||
*M3/4
2G\
8E-\L
8E-\J
=10||
*M2/4
4E-\
8BB-/
8r
=11
8E-\L
8E-\J
4E-\
=12||
*M3/4
8E-\L
8E-\J
4E-\
8A-\L
8A-\J
=13||
*M2/4
4G\
4E-\
=14
4A-\
4G\
=15||
*M3/4
4G^\
4E-\
4E-\
=16||
*M2/4
2E-\
=17||
*M3/4
4BB-/
4BB-/
4r
=18||
*M2/4
8E-\L
8E-\J
4E-\
=19
8c\L
8c\J
4c\
=20||
*M3/4
2B-\
8c\L
8B-\J
==:|!
*-
